X: 10131
Q: "Slow"
M: 3/4
L: 1/8
K: D
{DE}F2 A2 B>c | d3 e {de}f2 | A2 BAGF | {F2}E4 D>E |\
{DE}F2 A2 B>c | d>cde f2 |[1 A>BAF TE>D | D4 :|[2 A2 g>fTe>d | d4 |]
|: d>e |\
f2 g>fe>d | c2 e>cBA | B>c d{c}B{B}AF | {F2}E4 D>E |F2 A2 B>c |\
d>cde {de}f2 |[1 A>BAF TE>D | D4 :|[2 A2 gfTe>d | d4 |]


